X: 30698
T: Orange Rogue, The
R: jig
M: 6/8
K: Eminor
|:d|e/f/ge dBA|GEF G2 A|BAB def|g2 b agf|
e/f/ge dBA|GEF G2 A|BAB dBd|e3 e2:|
|:f|g2 e a2 f|g2 B Bcd|g2 e agf|g3 B2 d|
g2 e a2 f|g2 e fed|BAB def|g2 b agf|
e/f/ge dBA|GEF G2 A|BAB def|g2 b agf|
e/f/ge dBA|GEF G2 A|BAB dBd|e3 e2:|

